!!!OTL: Drei Schwestern vor der Himmelst&uuml;r (61b), S. 189
!!!id: T0208
**kern
*clefG2
*k[]
*C:
{8c
=1
4c
8d
4e
16e
16e
=2
4f
8d
8d
8c}
=3
{8c
=4
4c
8cc
4cc
8cc
=5
4cc
8dd
8cc
8b}
=6
{8a
=7
4g
8e
4g
8a
=8
4f
8g
4e}
=9
{8c
=10
4c
8e
4g
8a
=11
4f
8g
4e}
==
*-
!!!minrhy: 16
!!!meters: 6/8 ]  ZZ[4
!!!cut: Drei Schwestern vor der Himmelst&uuml;r (61b), S. 189
!!!reg: Luxemburg
!!!trd: Singendes Volk, Esch-Alzette 1937 posth.
!!!rhy1: X_  X__X_X__XX  X__X_X_X_
!!!rhy2: X_  X__X_X__X_  X__X_X_X_
!!!key: T0208  16  C 6/8 ]  ZZ[4
!!!mod: HEPTATONIK IONISCH]  AMBITUS[9
!!!kad: 1733
!!!akz: 1342_1+1+1+1_5543_1543_
!!!fot: 'a__b__c__cw_
!!!for: 'a__b__bw_bw_
!!!fok: '^__^a_Sd_^a_
!! PHRAS[AUFTAKTIG]
!!!fkt: Liebeslieder
!!!bem: Heffingen, fff Klemens-Olinger, 2.6.1935
!! THILL, Mathias:
!! PR[29] 2K[0] 2G[11] 3K[11] 3G[4] 4A[7] 4Ü[0] 5A[0] 6K[0] 6G[0]
!! 7K[0] 7G[0] 8A[0] MEHR[0] SI[32] ABS[28] SR[11] SP[21]
!! ST[6] 2k[11] 2g[21] 3k[0] 3g[4] 4d[4] 4ü[0] 5d[0] 6k[0] 6g[0]
!! 7k[0] 7g[0] 8d[0] mehr[0] si[39] dm[-7] sr[32] sp[7]
!! 1F[41] 2F[52] 3F[0] 4F[0] LF[0] 2P[7] 3P[0] 4P[0] TRI[0] DF[3] AB[29]
!! TF[0] U3K[0] U3[3] U4[3] U4Ü[0] U5[24] U6K[0] U6[10] U7K[0] U7[3]
!! N1[31] N2K[0] N2[10] N3K[0] N3[10] N4[3] N4Ü[0] N5[0] N6K[0] N6[0]
!!!n7k: 0] N7[0] O1[0] O2K[0] O2[0] O3K[0] O3[0] HÖ[0
!!!RNB: symbol: &uuml;  = u umlaut (UTF-8: Ã¼)
